X:17
T:Sixpenny Money
M:6/8
R:jig
K:G
fAA fAA|BAG FGE| ~D3 AFA|dfd e2d|fAA fAA|BAG FGE| ~D3 AFA|dfd e2d:|
~f3 gfg|afd edd|fef gfg|afd e2d|~f3 ~g3|afd edB|ABA AFA|dfd e2d:|
*********************** SINGLE JIGS and SLIDES ***************************
<end>
<start>
